public/images/icons/chemical.svg

<svg width="28" height="26" viewBox="0 0 28 26" fill="none" xmlns="http://www.w3.org/2000/svg">
<path fill-rule="evenodd" clip-rule="evenodd" d="M4.66699 6.49998L8.16699 4.33331L11.667 6.49998V10.8333L8.16699 13L4.66699 10.8333V6.49998Z" stroke="#FBFBFB" stroke-width="2.16667"/>
<path fill-rule="evenodd" clip-rule="evenodd" d="M10.5005 16.25L14.0005 14.0833L17.5005 16.25V20.5833L14.0005 22.75L10.5005 20.5833V16.25Z" stroke="#FBFBFB" stroke-width="2.16667"/>
<path d="M15.167 5.95833L19.8337 3.25L24.5003 5.95833V11.375L19.8337 14.0833L15.167 11.375V5.95833Z" fill="#FBFBFB"/>
</svg>

<svg xmlns="http://www.w3.org/2000/svg" width="28" height="26" fill="none"><path stroke="#FBFBFB" stroke-width="2.167" d="m4.667 6.5 3.5-2.167 3.5 2.167v4.333L8.167 13l-3.5-2.167V6.5ZM10.5 16.25l3.5-2.167 3.5 2.167v4.333L14 22.75l-3.5-2.167V16.25Z" clip-rule="evenodd"/><path fill="#FBFBFB" d="m15.167 5.958 4.667-2.708L24.5 5.958v5.417l-4.666 2.708-4.667-2.708V5.958Z"/></svg>
